packages/match-icons/twilio/svg/funnel.svg

<svg fill="none" height="32" viewBox="0 0 32 32" width="32" xmlns="http://www.w3.org/2000/svg" xmlns:xlink="http://www.w3.org/1999/xlink"><clipPath id="a"><path d="m0 0h32v32h-32z"/></clipPath><g clip-path="url(#a)"><path d="m29.0667 2.80002c.1485-.19809.239-.43364.2612-.68026.0223-.24661-.0246-.49455-.1353-.71602-.1108-.22148-.281-.407741-.4916-.537921-.2107-.130179-.4534-.199132-.701-.199132h-24.02534c-.24762 0-.49034.068953-.70097.199132-.21064.13018-.38086.316441-.4916.537921-.11074.22147-.15761.46941-.13537.71602.02223.24662.1127.48217.26127.68026l10.41071 13.98798v13.212c0 .2476.0689.4904.1991.701s.3164.3809.5379.4916.4694.1576.716.1354c.2467-.0223.4822-.1127.6803-.2613l2.6667-2c.1656-.1242.3-.2853.3925-.4704.0926-.1851.1408-.3893.1408-.5963v-11.2133z" stroke="#394762" stroke-linecap="round" stroke-linejoin="round" stroke-width="1.7"/></g></svg>

<svg width="32" height="32" viewBox="0 0 32 32" fill="none" xmlns="http://www.w3.org/2000/svg">
<g clip-path="url(#clip0)">
<path d="M29.0667 2.80002C29.2152 2.60193 29.3057 2.36638 29.3279 2.11976C29.3502 1.87315 29.3033 1.62521 29.1926 1.40374C29.0818 1.18226 28.9116 0.995999 28.701 0.865819C28.4903 0.73564 28.2476 0.666687 28 0.666687H3.97466C3.72704 0.666687 3.48432 0.73564 3.27369 0.865819C3.06305 0.995999 2.89283 1.18226 2.78209 1.40374C2.67135 1.62521 2.62448 1.87315 2.64672 2.11976C2.66895 2.36638 2.75942 2.60193 2.90799 2.80002L13.3187 16.788V30C13.3187 30.2476 13.3876 30.4904 13.5178 30.701C13.648 30.9116 13.8342 31.0819 14.0557 31.1926C14.2772 31.3033 14.5251 31.3502 14.7717 31.328C15.0184 31.3057 15.2539 31.2153 15.452 31.0667L18.1187 29.0667C18.2843 28.9425 18.4187 28.7814 18.5112 28.5963C18.6038 28.4112 18.652 28.207 18.652 28V16.7867L29.0667 2.80002Z" stroke="#394762" stroke-width="1.7" stroke-linecap="round" stroke-linejoin="round"/>
</g>
<defs>
<clipPath id="clip0">
<rect width="32" height="32" fill="white"/>
</clipPath>
</defs>
</svg>
